X: 1360
T: An Púca
R: polka
M: 2/4
K: Gmajor
|:G>g fd|eg d2|eg dG|B ~B A ~A|
G>g fd|eg d2|eg dB|A ~A GF:|
|:E>c AG|Fd A2|Gg fd|eg d2|
E>c AG|Fd A2|Gg dB|1 A ~A GF:|2 A2 B>A||

